svg/ats.svg

<svg width="24" height="24" viewBox="0 0 24 24"  xmlns="http://www.w3.org/2000/svg">
<path fill-rule="evenodd" clip-rule="evenodd" d="M5.2 6C5.6 4.8 6.7 4 8 4C9.7 4 11 5.3 11 7C11 7.17144 10.9868 7.33881 10.9613 7.50119L14.9922 9.74059C15.5177 9.27625 16.2163 9 17 9C18.3 9 19.4 9.8 19.8 11H22V13H19.8C19.4 14.2 18.3 15 17 15C15.3 15 14 13.7 14 12C14 11.8286 14.0132 11.6612 14.0387 11.4988L10.0078 9.25941C9.48232 9.72375 8.78366 10 8 10C6.7 10 5.6 9.2 5.2 8H2V6H5.2ZM7 7C7 7.6 7.4 8 8 8C8.6 8 9 7.6 9 7C9 6.4 8.6 6 8 6C7.4 6 7 6.4 7 7ZM17 13C16.4 13 16 12.6 16 12C16 11.4 16.4 11 17 11C17.6 11 18 11.4 18 12C18 12.6 17.6 13 17 13Z" />
<path fill-rule="evenodd" clip-rule="evenodd" d="M5.2 16C5.6 14.8 6.7 14 8 14C9.7 14 11 15.3 11 17C11 18.7 9.7 20 8 20C6.7 20 5.6 19.2 5.2 18H2V16H5.2ZM7 17C7 17.6 7.4 18 8 18C8.6 18 9 17.6 9 17C9 16.4 8.6 16 8 16C7.4 16 7 16.4 7 17Z" />
</svg>

<svg width="24" height="24" viewBox="0 0 24 24" xmlns="http://www.w3.org/2000/svg"><path fill-rule="evenodd" clip-rule="evenodd" d="M5.2 6C5.6 4.8 6.7 4 8 4c1.7 0 3 1.3 3 3 0 .171-.013.339-.039.501l4.031 2.24A3.004 3.004 0 0 1 17 9c1.3 0 2.4.8 2.8 2H22v2h-2.2c-.4 1.2-1.5 2-2.8 2-1.7 0-3-1.3-3-3 0-.171.013-.339.039-.501l-4.031-2.24A3.004 3.004 0 0 1 8 10c-1.3 0-2.4-.8-2.8-2H2V6h3.2zM7 7c0 .6.4 1 1 1s1-.4 1-1-.4-1-1-1-1 .4-1 1zm10 6c-.6 0-1-.4-1-1s.4-1 1-1 1 .4 1 1-.4 1-1 1zM5.2 16c.4-1.2 1.5-2 2.8-2 1.7 0 3 1.3 3 3s-1.3 3-3 3c-1.3 0-2.4-.8-2.8-2H2v-2h3.2zM7 17c0 .6.4 1 1 1s1-.4 1-1-.4-1-1-1-1 .4-1 1z"/></svg>
